COLOR/action 16/16/document-import.svg

<?xml version="1.0" encoding="UTF-8" standalone="no"?>
<svg
   xmlns:dc="http://purl.org/dc/elements/1.1/"
   xmlns:cc="http://creativecommons.org/ns#"
   xmlns:rdf="http://www.w3.org/1999/02/22-rdf-syntax-ns#"
   xmlns:svg="http://www.w3.org/2000/svg"
   xmlns="http://www.w3.org/2000/svg"
   xmlns:sodipodi="http://sodipodi.sourceforge.net/DTD/sodipodi-0.dtd"
   xmlns:inkscape="http://www.inkscape.org/namespaces/inkscape"
   height="16"
   viewBox="0 0 4.233125 4.233125"
   width="16"
   version="1.1"
   id="svg8"
   sodipodi:docname="document-import.svg"
   inkscape:version="0.92.4 (5da689c313, 2019-01-14)">
  <metadata
     id="metadata14">
    <rdf:RDF>
      <cc:Work
         rdf:about="">
        <dc:format>image/svg+xml</dc:format>
        <dc:type
           rdf:resource="http://purl.org/dc/dcmitype/StillImage" />
      </cc:Work>
    </rdf:RDF>
  </metadata>
  <defs
     id="defs12" />
  <sodipodi:namedview
     pagecolor="#ffffff"
     bordercolor="#808080"
     borderopacity="1"
     objecttolerance="10"
     gridtolerance="10"
     guidetolerance="10"
     inkscape:pageopacity="0"
     inkscape:pageshadow="2"
     inkscape:window-width="1920"
     inkscape:window-height="1016"
     id="namedview10"
     showgrid="false"
     inkscape:zoom="83.900004"
     inkscape:cx="7.7500053"
     inkscape:cy="7.9999989"
     inkscape:window-x="0"
     inkscape:window-y="27"
     inkscape:window-maximized="1"
     inkscape:current-layer="g6" />
  <g
     enable-background="new"
     fill="#45a925"
     stroke-width=".642857"
     transform="matrix(.30866537049 0 0 -.30866537049 -113.08928359023 22.93179725984)"
     id="g6">
    <path
       style="stroke-width:0.74999988"
       d="M 0.5 3 L 0.5 13 L 1.5 13 L 1.5 3 L 0.5 3 z M 8.5 3 L 2 8 L 8.5 13 L 8.5 9.6660156 L 15 9.6660156 L 15 6.3339844 L 8.5 6.3339844 L 8.5 3 z "
       transform="matrix(0.85714284,0,0,-0.85714284,366.38151,74.293392)"
       id="path2" />
    <path
       style="stroke-width:0.74999988;fill:#ffffff;fill-opacity:1;opacity:0.3"
       d="M 0.5 3 L 0.5 3.5 L 1.5 3.5 L 1.5 3 L 0.5 3 z M 8.5 3 L 2 8 L 2.3242188 8.25 L 8.5 3.5 L 8.5 3 z M 8.5 6.3339844 L 8.5 6.8339844 L 15 6.8339844 L 15 6.3339844 L 8.5 6.3339844 z "
       transform="matrix(0.85714284,0,0,-0.85714284,366.38151,74.293392)"
       id="path826" />
    <path
       id="path831"
       d="m 366.81008,63.150535 v 0.428571 h 0.85714 v -0.428571 z m 6.85714,0 -5.57142,4.285714 0.2779,0.214285 5.29352,-4.071428 z m 0,2.8577 v 0.428572 h 5.57143 v -0.428572 z"
       style="opacity:0.2;fill:#000000;fill-opacity:1;stroke-width:0.64285702"
       inkscape:connector-curvature="0" />
  </g>
</svg>

<svg height="16" viewBox="0 0 4.233125 4.233125" width="16" xmlns="http://www.w3.org/2000/svg"><g enable-background="new" fill="#45a925" stroke-width=".642857" transform="matrix(.30866537 0 0 -.30866537 -113.089284 22.931797)"><path d="m.5 3v10h1v-10zm8 0-6.5 5 6.5 5v-3.3339844h6.5v-3.3320312h-6.5z" stroke-width=".75" transform="matrix(.85714284 0 0 -.85714284 366.38151 74.293392)"/><path d="m.5 3v.5h1v-.5zm8 0-6.5 5 .3242188.25 6.1757812-4.75zm0 3.3339844v.5h6.5v-.5z" fill="#fff" opacity=".3" stroke-width=".75" transform="matrix(.85714284 0 0 -.85714284 366.38151 74.293392)"/><path d="m366.81008 63.150535v.428571h.85714v-.428571zm6.85714 0-5.57142 4.285714.2779.214285 5.29352-4.071428zm0 2.8577v.428572h5.57143v-.428572z" fill="#000" opacity=".2" stroke-width=".642857"/></g></svg>
